X:1
T:Title
%%score { ( 1 3 ) | ( 2 4 ) }
L:1/8
M:4/4
K:A
V:1 bass nm="Grand Piano"
V:3 bass 
V:2 bass 
V:4 bass 
V:1
 z4 z2[Q:1/4=100] [E,CE]>[E,B,D] | [E,A,C]2 [E,A,C]>[E,B,D][K:treble] [A,CE]2 [B,DF]>[B,DG] | %2
 [CA]4 [Ec]2 c>c | B2 B>c d2 G2 |[M:3/4] [CEA]6 |[M:1/4] [A,E=GA]2 | %6
[M:4/4] [FA]2 [FG]>[FA] [FB]2 [FA]>[DF] | [DF]4 [CE]2 [Fd]2 | [Ec]2 [Ec]>[Fd] [Ec]2 [DB]2 | %9
 [CA]6 z2 |[M:12/8] E3 z3 .C3 c3 | .c3 .B3 d6 | E3[K:treble] z3 d3 d3 | .d3 .c3 e6 | E3 z3 .C3 c3 | %15
 .c3 .B3 d6 | .d3 .c3 c3 B3 |[M:9/8] A8- A |] %18
V:2
 z4 z2 A,,>A,, | A,,2 A,,>A,, A,,2 E,>E, | [A,,A,]4 [A,,A,]2 [A,E]>[A,E] | %3
 [E,G,E]2 [E,G,E]>[E,A,E] [E,B,E]2 [E,DE]2 |[M:3/4] A,,6 |[M:1/4] C,2 | %6
[M:4/4] [D,D]2 [D,D]>[D,D] [D,D]2 [D,D]>[D,A,] | [A,,A,]4 [A,,A,]2 [D,A,]2 | %8
 [E,A,]2 [E,A,]>[E,A,] [E,A,]2 [E,G,]2 | [A,,A,]6 z2 | %10
[M:12/8] [E,A,][E,A,][E,A,] [E,A,C][E,A,C][E,A,C] [E,A,][E,A,][E,A,] [E,A,C][E,A,][E,A,] | %11
 [E,A,C][E,A,][E,A,C] [E,A,C][E,A,][E,A,C] [G,B,D][G,B,][G,B,] [G,B,][G,B,][G,B,] | %12
 z [E,G,][E,G,] [E,G,B,][E,G,B,][E,G,B,] [G,B,D][G,B,][G,B,] [G,B,D][G,B,][G,B,] | %13
 [G,B,][G,B,][G,B,D] [E,A,C]A,[G,B,D] [A,CE][A,C][A,C] [A,C][A,C][A,C] | %14
 [E,A,][E,A,][E,A,] [E,A,C][E,A,C][E,A,C] [E,A,][E,A,][E,A,] [E,A,C][E,A,][E,A,] | %15
 [E,A,][E,A,][E,A,C] [F,B,]F,[C,^A,] [F,B,][F,B,][F,B,] [F,B,][F,B,][F,B,] | %16
 [F,B,][F,B,][D,F,B,] [F,^A,C][F,A,][B,,F,B,] [E,=A,C][E,A,][E,A,] [D,E,G,B,][D,E,G,][D,E,G,] | %17
[M:9/8] [A,,C,E,A,]8- [A,,C,E,A,] |] %18
V:3
 x8 | x4[K:treble] x4 | x8 | x8 |[M:3/4] x6 |[M:1/4] x2 |[M:4/4] x8 | x8 | x8 | x8 | %10
[M:12/8] CCC EAB c-[Cc-][Cc] z CC | z CA z Cc z DD DDD | [E,G,B,]B,B,[K:treble] EGB z DD z DD | %13
 DDB z Cd z EE EEE | CCC EAB c-[Cc-][Cc] z CC | CCA z B,[Cc] DDD DDD | DDB z C[Dd] z CC z B,B, | %17
[M:9/8] x9 |] %18
V:4
 x8 | x8 | x8 | x8 |[M:3/4] x6 |[M:1/4] x2 |[M:4/4] x8 | x8 | x8 | x8 |[M:12/8] A,,6 A,,6 | %11
 F,,6 [E,,E,]6 | E,,6 [E,,E,]6 | B,,3 z E,2 A,,6 | A,,6 A,,6 | A,,3 .D,3 B,,6 | %16
 .B,,3 .C,3 E,,3 E,,3 |[M:9/8] x9 |] %18

